X: 2047
T: Trip to Germantown
R: reel
C: Rick Gagne
N: 1989 on bouzouki
M: 4/4
Q: 1/4=175
K: D
AF|"D"DEFD "G"GABG | "A"ABcA "D"dAFD | DEFD "G"GABG | "A"ABcA "D"d2 :|
fe|"Bm"defd "G"gdBG | "A"ABcA "D"dAFD | "Bm"defd "G"gdBG |"A"ABcA "D"d2fe|
"Bm"defd "G"gdBG | "A"ABcA "Em"dAFD | "D"DEFD "G"GABG | "A"ABcA "D"d2 ||
